X:1
T:[ID 2-45a]
T:[ID 2-45a]
T:Bezeichnung standardisiert: Polonaise Polon\"aise In dieser Quelle auch als: Polonaise In dieser Quelle auch als: Polonoise
T:Urheber unbekannt Datum in der hier transkribierten schriftlichen Quelle: 1767
C:Urheber unbekannt
C:Datum in der hier transkribierten schriftlichen Quelle: 1767
L:1/8
M:3/4
K:D
V:1 treble 
V:1
 a/g/f/e/ .d.d.d.d | d/f/g/a/ b2 a2 | a/g/f/e/ .d.d.d.d | e/d/c/B/ A2 A2 :: Aa ag/f/ g2 | %5
 Ag gf/e/ f2 | Aa ag/f/ g2 | Ag gf/e/ f2 | ab/c'/ d'2 g2 | f/e/d/c/ d4 :| %10

